X:159
T:Plo
R:jig
C:Bruce Osborne  --  Mar. 1991
Z:abc by bosborne@kos.net
M:6/8
L:1/8
K:A
A/B/|cBA AFE|EFE EFA|ceA fec|cBA B2 A/B/|\
cBA AFE|EFE EFA|ceA fec|EGB A2:|
|:E/D/|CEA, CEA,|DFA E2 D|CEA Ace|ecA B2 E/D/|\
CEA, CEA,|DFA E2 D|CEA Ace|EGB A2:|
